X: 1
T: String Quartet in F\# Minor opus 50 no 4 mvt 4
C: Franz Joseph Haydn
%%abc-version 2.0
%%abcx-abcm2ps-target-version 5.9.1 (29 Sep 2008)
%%abc-creator hum2abc beta
%%abcx-conversion-date 2021/02/14 14:38:37
%%abc-copyright Copyright (c) 1994, 2000 Center for Computer Assisted Research in the Humanities
%%abc-edited-by Frances Bennion
%%abcx-initial-encoding-date 1997/04/15
%%gracespace 0 6 6
%%humdrum-veritas 3492046181
%%humdrum-veritas-data 2255247657
%%linebreak <none>
%%barnumbers 0
L: 1/8
M: 6/8
N: Derived from op50n4-04.krn
Q: "Finale: Fuga. Allegro moderato"
%%staves [1 2 3 4]
V: 1
V: 2
V: 3 clef=alto
V: 4 clef=bass
K: A
[V:1]z6 [I:setbarnb2]|
[V:2]z6 |
[V:3]z6 |
[V:4]zDC ^E,2G, |
[V:1]z6 |
[V:2]z6 |
[V:3]z6 |
[V:4]F,F,/^E,/F, G,G,/F,/G, |
[V:1]z6 |
[V:2]z6 |
[V:3]zAF ^B,2^D |
[V:4]A,4 G,F, |
[V:1]z6 |
[V:2]z6 |
[V:3]CC/^B,/C ^DD/C/D |
[V:4]E,2>C2 ^B,G, |
[V:1]z6 |
[V:2]zdc ^E2G |
[V:3]E^EF B,CD |
[V:4]CB,A, G,A,B, |
[V:1]z6 |
[V:2]FF/^E/F GG/F/G |
[V:3]C6- |
[V:4]A,2F,2 ^E,C, |
[V:1]zaf ^B2^d |
[V:2]A4 GF |
[V:3]C2^D/E/ FED |
[V:4]F,2z4 |
[V:1]cc/^B/c ^dd/c/d |
[V:2]G4 G/A/F/G/ |
[V:3]E2C2 ^B,G, |
[V:4]z6 |
[V:1]e^ef g/b/a/g/f/e/ |
[V:2]EGA B3- |
[V:3]CB,A,/F,/ C,CC |
[V:4]zD,C, ^E,,2G,, |
[V:1]f4 ed |
[V:2]BAA BB/A/B |
[V:3]C2z4 |
[V:4]F,,F,,/^E,,/F,, G,,G,,/F,,/G,, |
[V:1]cc/B/c dd/c/d |
[V:2]BAz4 |
[V:3]zFE G,2B,- |
[V:4]A,,3 B,,3 |
[V:1]ee/d/e ff/e/f |
[V:2]z6 |
[V:3]B,A,/B,/C2 B,A,- |
[V:4]C,3 D,2^D, |
[V:1]B2z4 |
[V:2]zc'b ^d2f |
[V:3]A,2G,/A,/ B,BB |
[V:4]E,2z2 AA |
[V:1]z6 |
[V:2]ee/^d/e ff/e/f |
[V:3]B6- |
[V:4]AGE2 ^DB, |
[V:1]z6 |
[V:2]gg/f/g ag/a/b/g/ |
[V:3]Bee2 ^d=d- |
[V:4]E,E,/^D,/E, F,2G, |
[V:1]zfe G2B |
[V:2]ez4 z |
[V:3]dcC D/F/E/D/C/B,/ |
[V:4]A,3 E,3- |
[V:1]AA/G/A BB/A/B |
[V:2]z6 |
[V:3]CEA2 GG |
[V:4]E,6 |
[V:1]c2C/D/ E/=G/F/E/D/C/ |
[V:2]zba c2e |
[V:3]=G2>>B2 A/G/F/E/ |
[V:4]A,,6- |
[V:1]D2z4 |
[V:2]dd/c/d =gfe |
[V:3]FF/=G/F EDC |
[V:4]A,,3 ^A,,3 |
[V:1]z=gf ^A2c |
[V:2]d2z4 |
[V:3]B,2z EE/D/E |
[V:4]B,,2z4 |
[V:1]BB/^A/B cc/B/c |
[V:2]z=GF ^A,3 |
[V:3]D2z4 |
[V:4]z4 =G,F, |
[V:1]dag ^B2^d |
[V:2]B,2z4 |
[V:3]z2>F2 F/E/F |
[V:4]B,,2z4 |
[V:1]cc/^B/c ^dd/c/d |
[V:2]zAG ^B,3 |
[V:3]E2z3 G- |
[V:4]z4 A,G, |
[V:1]e3 f3 |
[V:2]C2z4 |
[V:3]GAA2 BB- |
[V:4]C,C,/^B,,/C, ^D,D,/C,/D, |
[V:1]gc'b eag |
[V:2]z6 |
[V:3]BGF zE^D |
[V:4]E,E^D zCB, |
[V:1]cf^e b2a |
[V:2]z4 dc |
[V:3]zCB, G,2A, |
[V:4]zA,G, ^E,2F, |
[V:1]gf^e f2z |
[V:2]^E2G FF/E/F |
[V:3]B,2D CB,A,/F/ |
[V:4]G,2B, A,G,F, |
[V:1]zdc zdc |
[V:2]GG/F/G AA/G/A |
[V:3]F^EE/G/ GFF/A/ |
[V:4]C,3 F,3 |
[V:1]zfe zfe |
[V:2]BB/A/B cc/B/c |
[V:3]GG/F/G AA/G/A |
[V:4][E,3D3] [C3E,3] |
[V:1]G2B2 ^Ac- |
[V:2]BB/c/d cc/^d/e |
[V:3]E2z4 |
[V:4]E,2^E, F,2^^F, |
[V:1]c^B/c/^d cec |
[V:2]^dd/e/f ege |
[V:3]zAG zC/^D/E/F/ |
[V:4]G,6- |
[V:1]^B^d/e/f/g/ agf |
[V:2]^d^B/c/d/e/ fed |
[V:3]GAG ^B,3 |
[V:4]G,6 |
[V:1]e^e/f/g/a/ bag |
[V:2]c2z4 |
[V:3]CG/A/B/c/ dcB |
[V:4]zDC ^E,3 |
[V:1]f^d/e/f/g/ agf |
[V:2]zA/G/F/E/ ^DEF |
[V:3]AF/E/^D/C/ B,CD |
[V:4]F,2z4 |
[V:1]gc'b ^d2f |
[V:2]E2z4 |
[V:3]E2z4 |
[V:4]z3 B,,/F,/A,/C/B,/A,/ |
[V:1]ee/^d/e ff/e/f |
[V:2]G,/B,/E/G/B/G/ Fz2 |
[V:3]z3 ^D,/F,/A,/B,/^D/B,/ |
[V:4]G,z4 z |
[V:1]gc'b ^d2f |
[V:2]E/B/E/B/E/B/ A/B/A/B/A/B/ |
[V:3]E2z4 |
[V:4]z6 |
[V:1]ec'b f2a |
[V:2]G/B/G/B/G/B/ ^D/B/D/B/D/B/ |
[V:3]z6 |
[V:4]z6 |
[V:1]gc'b ^dc'b |
[V:2]EzG FzF |
[V:3]z2E ^DzD |
[V:4]E,/B,/E,/B,/E,/B,/ A,/B,/A,/B,/A,/B,/ |
[V:1]ec'b fc'b |
[V:2]GzG AzA |
[V:3]EzE FzF |
[V:4]G,/B,/G,/B,/G,/B,/ ^D,/B,/D,/B,/D,/B,/ |
[V:1]gc'b fc'b |
[V:2]GzG BzB |
[V:3]EzE DzF |
[V:4]E,/B,/E,/B,/E,/B,/ D,/B,/D,/B,/D,/B,/ |
[V:1]^ed'c' fd'c' |
[V:2]G/B/G/B/G/B/ F/A/F/A/F/A/ |
[V:3]^E/G/E/G/E/G/ A/F/A/F/A/F/ |
[V:4]C,6- |
[V:1]gd'c' agf |
[V:2]^E/G/E/G/E/G/ F/^B/F/B/F/B/ |
[V:3]G/^E/G/E/G/E/ AA,A |
[V:4]C,6- |
[V:1]^eef gga |
[V:2]cdc BB/c/A/B/ |
[V:3]GBA GG/A/F/G/ |
[V:4]C,6- |
[V:1]b2z4 |
[V:2]G2z4 |
[V:3]^E2z4 |
[V:4]C,2z4 |
[V:1]z6 |
[V:2]z6 |
[V:3]z6 |
[V:4]zDC ^E,2G, |
[V:1]z6 |
[V:2]z6 |
[V:3]zAF ^B,2^D |
[V:4]F,F,/^E,/F, G,G,/F,/G, |
[V:1]z6 |
[V:2]zaf ^B2^d |
[V:3]CC/^B,/C ^DD/E/F |
[V:4]A,4 G,F, |
[V:1]zd'c' ^e2g |
[V:2]cGA Bcd |
[V:3]GBA GF^E |
[V:4]^E,2F, G,A,B, |
[V:1]fd'c' fba |
[V:2]cAG zFE |
[V:3]FFE zDC |
[V:4]A,2z4 |
[V:1]dgf ^eef |
[V:2]zDC B,BA |
[V:3]B,2z4 |
[V:4]zB,A, G,G,F, |
[V:1]^e3 f3 |
[V:2]G3 A3 |
[V:3]zdc z^BB |
[V:4]C,2z4 |
[V:1]^e3 f3 |
[V:2]G3 A3 |
[V:3]zdc z^BB |
[V:4]C,2z4 |
[V:1]^e2f gab |
[V:2]G2A BAG |
[V:3]zBA Gz2 |
[V:4]zDC ^E,2G, |
[V:1]^a2b c'ba |
[V:2]ced edc |
[V:3]z=GF ^A,2C |
[V:4]F,6 |
[V:1]b2a gf^e |
[V:2]d2c BAG |
[V:3]B,2z4 |
[V:4]z^E,,F,, D,2B,, |
[V:1]ff/^e/f agf |
[V:2]A6 |
[V:3]^D6 |
[V:4]^B,,6 |
[V:1]^e2z2 G,B, |
[V:2]Gdc ^E2G |
[V:3]^E2z DC^E, |
[V:4]C,6- |
[V:1]A,2z2 ^EG |
[V:2]Fdc G2B |
[V:3]F,2z DC^E, |
[V:4]C,6- |
[V:1]Fdc ^E2G |
[V:2]A2z2 G,B, |
[V:3]F,2z DC^E, |
[V:4]C,6- |
[V:1]Fdc G2B |
[V:2]A,2z2 ^EG |
[V:3]F,2z DC^E, |
[V:4]C,6- |
[V:1]Adc ^Edc |
[V:2]Fdc ^Edc |
[V:3]F,dc ^Edc |
[V:4]C,DC ^E,DC |
[V:1]Ddc B,dc |
[V:2]Ddc B,dc |
[V:3]Ddc B,dc |
[V:4]D,DC B,,DC |
[V:1]G,dc bbb |
[V:2]G,dc ggg |
[V:3]G,dc ddd |
[V:4]G,,DC ^E,,E,,E,, |
[V:1]b2>>d'2 c'/b/a/g/ |
[V:2]g3- [g3B3] |
[V:3]d3 c3 |
[V:4]^E,,6 |
[V:1]ac'c' c'bg |
[V:2]f/c/A/c/A/c/ G/c/G/c/G/c/ |
[V:3]c/A/F/A/F/A/ ^E/G/E/G/E/G/ |
[V:4]F,,2z C,2z |
[V:1]ac'c' c'b^e |
[V:2]A/c/A/c/A/c/ B/c/^E/c/B/c/ |
[V:3]F/A/F/A/F/A/ G/B/G/B/G/B/ |
[V:4]F,2z C,2z |
[V:1]fc'c' c'bg |
[V:2]A/c/A/c/A/c/ G/c/G/c/G/c/ |
[V:3]F/A/F/A/F/A/ ^E/G/E/G/E/G/ |
[V:4]F,,2z C,2z |
[V:1]af'f' f'e'c' |
[V:2]A/c/A/c/A/c/ ^A/c/A/c/A/c/ |
[V:3]F/A/F/A/F/A/ E/F/^A/F/E/C/ |
[V:4]F,2z F,2z |
[V:1]d'=g'g' g'd'b |
[V:2]B[DB][BD] [B3D3] |
[V:3]F/B/d/B/=G/D/ B,2z |
[V:4]B,,=G,,G,, G,,2A,, |
[V:1]=g3 f3- |
[V:2][=G3B3] A3- |
[V:3]D3 ^D3 |
[V:4]B,,3 ^B,,3 |
[V:1]f4 g^e |
[V:2]A3 G3 |
[V:3]C3 B,3 |
[V:4]C,6 |
[V:1]f2<z2 a=g |
[V:2]F2<z2 A=G |
[V:3]zE,D, C,z2 |
[V:4]zE,,D,, C,,3/z3/ |
[V:1]f2<z2 a=g |
[V:2]F2<z2 A=G |
[V:3]zE,D, C,z2 |
[V:4]zE,,D,, C,,z2 |
[V:1]f2<z2 a=g |
[V:2]F2<z2 A=G |
[V:3]zE,D, C,z2 |
[V:4]zE,,D,, C,,z2 |
[V:1]f2<z2 ag |
[V:2]F2<z2 AG |
[V:3]zD,C, ^B,,3- |
[V:4]zD,,C,, ^B,,,3- |
[V:1]f6- |
[V:2]F6- |
[V:3]B,,^D,F, A,^B,^D |
[V:4]B,,,^D,,F,, A,,^B,,^D, |
[V:1]fA^B ^dfa |
[V:2]FA,^B, ^DFA |
[V:3]F2z4 |
[V:4]F,2z4 |
[V:1]f^d^B AF^D |
[V:2]F^D^B, A,2z |
[V:3]z6 |
[V:4]z2>^B,,2 ^D,F, |
[V:1]^B,^DF AFD |
[V:2][F6-A6] |
[V:3]^B,6- |
[V:4]A,F,^D, ^B,,D,F, |
[V:1]^B,^DF AFD |
[V:2][F6A6-] |
[V:3]B,6- |
[V:4]A,F,^D, ^B,,D,F, |
[V:1]^B,2z4 |
[V:2][F2A2]z4 |
[V:3]B,2z4 |
[V:4]A,2z4 |
[V:1]zdc ^E2G |
[V:2]A2z G2z |
[V:3]F2z C2z |
[V:4]C,2z C,2z |
[V:1]F2z4 |
[V:2]F2z C/^E/G/B/A/G/ |
[V:3]F,2z C,2z |
[V:4]zDC ^E,2G, |
[V:1]z3 G/A/B/d/c/B/ |
[V:2]A2z3 ^E |
[V:3]zdc ^E2G |
[V:4]F,2z C,2z |
[V:1]A2z c/g/b/g/b/g/ |
[V:2]Fdc ^E2G |
[V:3]Fz2 BG^E |
[V:4]F,2z C,C,C, |
[V:1]f2z4 |]
[V:2]A2z4 |]
[V:3]F2z4 |]
[V:4]F,,2z4 |]

